web/themes/custom/surf_main/images/icons/ui-icon-heart.svg

<svg fill="none" height="28" viewBox="0 0 28 28" width="28" xmlns="http://www.w3.org/2000/svg"><path d="m13.8436 26.288-.5304.5303.5304.5304.5303-.5304zm.0006-.0006.5303-.5304-.5303-.5303-.5303.5303zm.0001 0-.5304.5303.5304.5304.5303-.5304zm10.9077-10.9077.5303.5303zm0-8.98282.5303-.53033zm-10.9084 1.92553-.5303.53033.5303.53033.5303-.53033zm-1.9249-1.92493-.5304.53033zm-8.45251 8.45252c-2.18765-2.1877-2.18765-5.73455-.00001-7.92219l-1.06066-1.06066c-2.773428 2.77343-2.773426 7.27005.00001 10.04345zm10.90771 10.9077-10.90771-10.9077-1.06066 1.0606 10.90767 10.9077zm-1.06-.0007-.0007.0007 1.0607 1.0606.0006-.0006zm1.0607.0001-.0001-.0001-1.0606 1.0607zm9.847-10.9077-10.9077 10.9077 1.0607 1.0606 10.9077-10.9077zm0-7.92219c2.1877 2.18764 2.1877 5.73449 0 7.92219l1.0607 1.0606c2.7734-2.7734 2.7734-7.27002 0-10.04345zm-7.9221 0c2.1876-2.18765 5.7345-2.18765 7.9221 0l1.0607-1.06066c-2.7734-2.77344-7.2701-2.77343-10.0435 0zm-1.9256 1.92553 1.9256-1.92553-1.0607-1.06066-1.9255 1.92553zm-2.9856-1.92493 1.925 1.92493 1.0606-1.06066-1.9249-1.92493zm-7.92212 0c2.18765-2.18765 5.73452-2.18765 7.92212 0l1.0607-1.06066c-2.77342-2.77343-7.27004-2.77343-10.04348 0z" fill="#222"/></svg>

<svg width="28" height="28" viewBox="0 0 28 28" fill="none" xmlns="http://www.w3.org/2000/svg">
<path d="M13.8436 26.288L13.3132 26.8183L13.8436 27.3487L14.3739 26.8183L13.8436 26.288ZM13.8442 26.2874L14.3745 25.757L13.8442 25.2267L13.3139 25.757L13.8442 26.2874ZM13.8443 26.2874L13.3139 26.8177L13.8443 27.3481L14.3746 26.8177L13.8443 26.2874ZM24.752 15.3797L25.2823 15.91L24.752 15.3797ZM24.752 6.39688L25.2823 5.86655L24.752 6.39688ZM13.8436 8.32241L13.3133 8.85274L13.8436 9.38307L14.3739 8.85274L13.8436 8.32241ZM11.9187 6.39748L11.3883 6.92781L11.9187 6.39748ZM3.46619 14.85C1.27854 12.6623 1.27854 9.11545 3.46618 6.92781L2.40552 5.86715C-0.367908 8.64058 -0.367906 13.1372 2.40553 15.9106L3.46619 14.85ZM14.3739 25.7577L3.46619 14.85L2.40553 15.9106L13.3132 26.8183L14.3739 25.7577ZM13.3139 25.757L13.3132 25.7577L14.3739 26.8183L14.3745 26.8177L13.3139 25.757ZM14.3746 25.7571L14.3745 25.757L13.3139 26.8177L13.3139 26.8177L14.3746 25.7571ZM24.2216 14.8494L13.3139 25.7571L14.3746 26.8177L25.2823 15.91L24.2216 14.8494ZM24.2216 6.92721C26.4093 9.11485 26.4093 12.6617 24.2216 14.8494L25.2823 15.91C28.0557 13.1366 28.0557 8.63998 25.2823 5.86655L24.2216 6.92721ZM16.2995 6.92721C18.4871 4.73956 22.034 4.73956 24.2216 6.92721L25.2823 5.86655C22.5089 3.09311 18.0122 3.09312 15.2388 5.86655L16.2995 6.92721ZM14.3739 8.85274L16.2995 6.92721L15.2388 5.86655L13.3133 7.79208L14.3739 8.85274ZM11.3883 6.92781L13.3133 8.85274L14.3739 7.79208L12.449 5.86715L11.3883 6.92781ZM3.46618 6.92781C5.65383 4.74016 9.2007 4.74016 11.3883 6.92781L12.449 5.86715C9.67558 3.09372 5.17896 3.09372 2.40552 5.86715L3.46618 6.92781Z" fill="#222222"/>
</svg>
